X: 1594
T: Ann From Monaghan
R: reel
M: 4/4
K: Dmajor
|:d2 fa gece|dged dAA=c|BGGB AFFA|GFED CDEF|
D2 FA E2 GB|ABce defg|af (3gfe fded|1 cAGE FDDc:|2 (3cBA (3GFE D3g||
|:faag afdc|dfag fdd=f|egg=f ge=cB|=cde=f ecce|
(3ded eg (3fgf af|(3gag bg ecBf|(3agf ge fded|1 cAGE FDDg:|2 (3cBA (3GFE D4||

